images_Srikandi_svg/cmd/lc_pasteonlyformula.svg

<?xml version="1.0" encoding="UTF-8" standalone="no"?>
<svg
   xmlns:dc="http://purl.org/dc/elements/1.1/"
   xmlns:cc="http://creativecommons.org/ns#"
   xmlns:rdf="http://www.w3.org/1999/02/22-rdf-syntax-ns#"
   xmlns:svg="http://www.w3.org/2000/svg"
   xmlns="http://www.w3.org/2000/svg"
   xmlns:sodipodi="http://sodipodi.sourceforge.net/DTD/sodipodi-0.dtd"
   xmlns:inkscape="http://www.inkscape.org/namespaces/inkscape"
   height="24"
   width="24"
   version="1.1"
   id="svg122"
   sodipodi:docname="lc_pasteonlyformula.svg"
   inkscape:version="0.92.4 (unknown)"
   inkscape:export-filename="/home/annisaauliarasyidah/Desktop/4_242 (aulia)/lc 222/lc_pasteonlyformula.png"
   inkscape:export-xdpi="96"
   inkscape:export-ydpi="96">
  <metadata
     id="metadata128">
    <rdf:RDF>
      <cc:Work
         rdf:about="">
        <dc:format>image/svg+xml</dc:format>
        <dc:type
           rdf:resource="http://purl.org/dc/dcmitype/StillImage" />
        <dc:title></dc:title>
      </cc:Work>
    </rdf:RDF>
  </metadata>
  <defs
     id="defs126" />
  <sodipodi:namedview
     pagecolor="#ffffff"
     bordercolor="#666666"
     borderopacity="1"
     objecttolerance="10"
     gridtolerance="10"
     guidetolerance="10"
     inkscape:pageopacity="0"
     inkscape:pageshadow="2"
     inkscape:window-width="1366"
     inkscape:window-height="707"
     id="namedview124"
     showgrid="true"
     inkscape:snap-global="false"
     inkscape:zoom="11.040948"
     inkscape:cx="-9.3684408"
     inkscape:cy="8"
     inkscape:window-x="0"
     inkscape:window-y="0"
     inkscape:window-maximized="1"
     inkscape:current-layer="svg122">
    <inkscape:grid
       type="xygrid"
       id="grid975" />
  </sodipodi:namedview>
  <linearGradient
     id="a"
     gradientUnits="userSpaceOnUse"
     x1="112"
     x2="87.003235"
     y1="112"
     y2="92.992432"
     gradientTransform="scale(0.125)">
    <stop
       offset="0"
       stop-color="#8c8c8c"
       id="stop2" />
    <stop
       offset=".25"
       stop-color="#a8a8a8"
       id="stop4" />
    <stop
       offset=".5"
       stop-color="#c5c5c5"
       id="stop6" />
    <stop
       offset=".75"
       stop-color="#e2e2e2"
       id="stop8" />
    <stop
       offset="1"
       stop-color="#fff"
       id="stop10" />
  </linearGradient>
  <linearGradient
     id="b"
     gradientTransform="matrix(0.11478468,0,0,0.18752649,0.8609315,-1.861014)"
     gradientUnits="userSpaceOnUse"
     x1="80.523918"
     x2="80.523918"
     y1="15.676145"
     y2="32.142143">
    <stop
       offset="0"
       stop-color="#fff"
       id="stop13" />
    <stop
       offset=".50551778"
       stop-color="#8b8b8b"
       id="stop15" />
    <stop
       offset=".50551778"
       stop-color="#a5a5a5"
       id="stop17" />
    <stop
       offset=".65644157"
       stop-color="#f4f4f4"
       id="stop19" />
    <stop
       offset=".80480587"
       stop-color="#bbb"
       id="stop21" />
    <stop
       offset="1"
       stop-color="#b1b1b1"
       id="stop23" />
  </linearGradient>
  <filter
     id="c"
     height="1.227488"
     width="1.075829"
     x="-0.037914999"
     y="-0.113744">
    <feGaussianBlur
       stdDeviation=".75827487"
       id="feGaussianBlur26" />
  </filter>
  <radialGradient
     id="d"
     cx="61.331802"
     cy="49.168488"
     gradientTransform="matrix(0.17435024,0,0,0.24014464,-3.5267387,-10.640524)"
     gradientUnits="userSpaceOnUse"
     r="50.665401">
    <stop
       offset="0"
       id="stop29" />
    <stop
       offset=".43397453"
       stop-color="#171717"
       id="stop31" />
    <stop
       offset=".66038471"
       stop-color="#424242"
       id="stop33" />
    <stop
       offset=".75739998"
       stop-color="#292929"
       id="stop35" />
    <stop
       offset="1"
       stop-color="#1c1c1c"
       id="stop37" />
  </radialGradient>
  <radialGradient
     id="e"
     cx="61.331802"
     cy="66.66819"
     gradientTransform="matrix(0.2072688,0,0,0.47427403,-5.2914391,-24.080916)"
     gradientUnits="userSpaceOnUse"
     r="50.665401">
    <stop
       offset="0"
       stop-color="#878787"
       id="stop40" />
    <stop
       offset=".35530001"
       stop-color="#646464"
       id="stop42" />
    <stop
       offset=".61940002"
       stop-color="#2d2d2d"
       id="stop44" />
    <stop
       offset=".75739998"
       stop-color="#232323"
       id="stop46" />
    <stop
       offset="1"
       stop-color="#1f1f1f"
       id="stop48" />
  </radialGradient>
  <linearGradient
     id="f"
     gradientUnits="userSpaceOnUse"
     x1="78.204185"
     x2="78.204185"
     y1="114.27974"
     y2="59.956783"
     gradientTransform="scale(0.125)">
    <stop
       offset="0"
       stop-color="#343434"
       id="stop51" />
    <stop
       offset="1"
       stop-opacity="0"
       id="stop53" />
  </linearGradient>
  <radialGradient
     id="g"
     cx="106.664"
     cy="117.3336"
     fy="121.10474"
     gradientTransform="matrix(0.50000015,-0.5000004,0.70710696,0.70710661,-29.635422,87.698281)"
     gradientUnits="userSpaceOnUse"
     r="5.3332">
    <stop
       offset="0"
       stop-color="#eefcff"
       id="stop56" />
    <stop
       offset="1"
       stop-color="#eefcff"
       stop-opacity="0"
       id="stop58" />
  </radialGradient>
  <filter
     id="h">
    <feGaussianBlur
       stdDeviation=".20220663"
       id="feGaussianBlur61" />
  </filter>
  <radialGradient
     id="i"
     cx="91.455429"
     cy="103.26143"
     gradientTransform="matrix(0.30324275,0,0,0.31447578,-16.801268,-20.235832)"
     gradientUnits="userSpaceOnUse"
     r="37.361931">
    <stop
       offset="0"
       stop-color="#ededed"
       id="stop64" />
    <stop
       offset=".25000003"
       stop-color="#fff"
       id="stop66" />
    <stop
       offset=".5"
       stop-color="#f6f6f6"
       id="stop68" />
    <stop
       offset="1"
       stop-color="#eee"
       id="stop70" />
  </radialGradient>
  <filter
     id="j">
    <feGaussianBlur
       stdDeviation="2.1720601"
       id="feGaussianBlur73" />
  </filter>
  <linearGradient
     id="k"
     gradientTransform="matrix(0.14955599,0,0,-0.23182204,-1.166564,4.4678124)"
     gradientUnits="userSpaceOnUse"
     x1="74.664803"
     x2="74.664803"
     y1="18.669399"
     y2="8.0030003">
    <stop
       offset="0"
       stop-color="#fff"
       id="stop76" />
    <stop
       offset="1"
       stop-color="#555"
       id="stop78" />
  </linearGradient>
  <filter
     id="l"
     height="1.232813"
     width="1.128976"
     x="-0.064488001"
     y="-0.116406">
    <feGaussianBlur
       stdDeviation=".80190058"
       id="feGaussianBlur81" />
  </filter>
  <g
     id="g879"
     transform="matrix(1.4039335,0,0,1.4450929,0.85668083,0.36597905)"
     style="stroke-width:0.70206743">
    <g
       id="g919"
       transform="translate(-0.89830507,0.09322003)"
       style="stroke-width:0.70206743">
      <path
         inkscape:connector-curvature="0"
         style="fill:#9d3a9b;stroke-width:0.08775844"
         id="path168"
         d="M 2,1 C 1.4460139,1 1,1.4460139 1,2 v 12 0.332031 C 1,14.701355 1.2986446,15 1.6679687,15 H 2 12 12.332031 C 12.701355,15 13,14.701355 13,14.332031 V 14 2 C 13,1.4460139 12.553986,1 12,1 Z" />
      <g
         id="g1067"
         style="stroke-width:0.70206743">
        <path
           d="M 3.9931803,0.99957625 H 9.9619836 V 3.9999999 H 3.9931803 Z"
           id="path188"
           style="fill:#e602b4;stroke-width:0.08775844"
           inkscape:connector-curvature="0" />
        <path
           d="M 5.0119439,2.472707 H 8.9999994 V 0 H 5.0119439 Z"
           id="path190"
           style="fill:#f3b7d9;stroke-width:0.08775844"
           inkscape:connector-curvature="0" />
        <path
           d="M 6,0 H 8 V 1 H 6 Z"
           id="path210"
           inkscape:connector-curvature="0"
           style="opacity:1;fill:#f0e3ec;fill-rule:evenodd;stroke-width:0.08775844" />
      </g>
      <path
         sodipodi:nodetypes="ccscscc"
         inkscape:connector-curvature="0"
         style="fill:#f0e3ec;stroke-width:0.08775844"
         id="path182"
         d="m 3,3 h 8 v 8 c 0,0.678389 -0.0066,1.640506 -0.101695,1.90678 C 10.737372,13.023565 10.66692,13 10,13 H 3 Z" />
    </g>
    <g
       transform="matrix(0.125,0,0,0.125,-0.23515343,0.01235914)"
       id="g118"
       style="fill:#f3b7d9;stroke:#e602b4;stroke-width:0.70206743">
      <path
         d="m 96.420576,42.899289 q 0,-1.334974 0.821523,-2.669949 0.821523,-1.437665 0.821523,-1.643045 0,-1.334975 -1.745736,-1.334975 -5.442588,0 -9.344821,15.300861 l -1.848426,7.291014 h 9.447511 l -0.924213,4.312994 h -9.24213 q -6.366801,29.472127 -8.831369,37.687351 -5.442588,18.17619 -13.555125,23.00264 -3.696852,2.1565 -8.317917,2.1565 -4.621066,0 -7.393705,-2.25919 -2.772639,-2.1565 -2.772639,-5.85335 0,-2.25919 1.643045,-3.90223 1.540356,-1.64305 3.696853,-1.64305 1.951116,0 3.491471,1.54036 1.540355,1.54035 1.540355,3.38878 0,1.43766 -0.821523,2.77264 -0.821522,1.33497 -0.821522,1.64304 0,1.1296 1.848426,1.1296 3.696852,0 5.545278,-5.54528 1.951117,-5.44259 6.982943,-28.342536 3.388781,-15.506241 5.750659,-25.775275 h -7.496395 l 0.924213,-4.312994 h 7.496395 q 1.540355,-5.545278 3.286091,-9.550202 1.745736,-4.004923 4.415684,-7.907156 2.669949,-4.004923 6.572182,-6.05873 3.902233,-2.053806 8.93406,-2.053806 4.621063,0 7.393703,2.259187 2.77264,2.156497 2.77264,5.95604 0,2.361877 -1.54036,3.902232 -1.43766,1.540356 -3.69685,1.540356 -2.053804,0 -3.594159,-1.437665 -1.437665,-1.540355 -1.437665,-3.594162 z"
         transform="matrix(0.93185685,0,0,0.93365694,3.167268,8.548355)"
         id="path114"
         inkscape:connector-curvature="0"
         style="fill:#f3b7d9;stroke:#e602b4;stroke-width:1.80238748" />
      <path
         d="m 120.12239,80.520063 q -0.82266,0 -2.31839,-0.747866 -1.49573,-0.747867 -1.94445,-0.747867 -1.04701,0 -2.16881,0.972226 -1.1218,0.89744 -1.86967,1.869666 -0.74787,0.972226 -1.72009,2.467958 -0.89744,1.495733 -1.1218,1.794879 l 2.39317,11.666713 q 0.82265,3.963688 2.76711,3.963688 0.97222,0 1.86966,-0.74786 0.97223,-0.82266 3.14104,-3.664548 l 1.57052,1.047013 q -3.44019,4.935915 -6.05772,7.029945 -2.54274,2.09402 -5.23506,2.09402 -2.99147,0 -4.56199,-2.7671 -1.49573,-2.84189 -2.69231,-8.824823 l -1.79488,2.916678 q -3.215827,5.384635 -5.085493,7.029945 -1.869665,1.6453 -4.711557,1.6453 -2.094025,0 -3.440184,-1.19658 -1.346159,-1.27138 -1.346159,-3.21583 0,-1.72009 1.196585,-2.91668 1.196586,-1.271368 2.916679,-1.271368 1.121799,0 2.617531,0.822652 1.495733,0.747866 1.944453,0.747866 0.972226,0 1.720092,-0.598292 0.747866,-0.67308 1.869665,-2.467959 l 3.290608,-5.235063 -2.243595,-11.51714 q -0.598293,-2.767105 -1.495732,-3.888904 -0.89744,-1.1218 -2.692319,-1.1218 -1.047012,0 -2.617531,0.149574 v -2.019239 l 12.489367,-1.794879 q 1.72009,2.542745 3.3654,10.320554 4.48719,-6.20729 6.80558,-8.226529 2.39317,-2.094025 5.0107,-2.094025 1.72009,0 2.99147,1.420946 1.34616,1.346159 1.34616,3.215824 0,1.570519 -1.27138,2.767105 -1.19658,1.1218 -2.91667,1.1218 z"
         transform="matrix(1.0521712,0,0,0.89992864,-3.423346,7.981189)"
         id="path116"
         inkscape:connector-curvature="0"
         style="fill:#f3b7d9;stroke:#e602b4;stroke-width:1.31263149" />
    </g>
  </g>
</svg>

<?xml version="1.0" encoding="UTF-8"?>
<svg xmlns="http://www.w3.org/2000/svg" xmlns:xlink="http://www.w3.org/1999/xlink" width="24px" height="24px" viewBox="0 0 24 24" version="1.1">
<g id="surface1">
<path style="fill-rule:evenodd;fill:rgb(95.294118%,71.764708%,85.09804%);fill-opacity:1;stroke-width:1.640248;stroke-linecap:round;stroke-linejoin:round;stroke:rgb(90.196079%,0.784314%,70.588237%);stroke-opacity:1;stroke-miterlimit:4;" d="M 3.694342 -3.988957 L 16.580011 -3.988957 C 17.978523 -3.988957 19.113166 -2.918579 19.113166 -1.599276 L 19.113166 12.57286 C 19.113166 13.892163 17.978523 14.962541 16.580011 14.962541 L 3.694342 14.962541 C 2.29583 14.962541 1.161187 13.892163 1.161187 12.57286 L 1.161187 -1.599276 C 1.161187 -2.918579 2.29583 -3.988957 3.694342 -3.988957 Z M 3.694342 -3.988957 " transform="matrix(0.88822,0,0,0.941548,1.191266,7.701108)"/>
<path style="fill-rule:evenodd;fill:rgb(94.117647%,89.019608%,92.54902%);fill-opacity:1;stroke-width:0.820124;stroke-linecap:round;stroke-linejoin:round;stroke:rgb(61.56863%,22.745098%,60.784316%);stroke-opacity:1;stroke-miterlimit:4;" d="M 6.341841 -1.366946 L 13.906124 -1.366946 C 15.256261 -1.366946 16.351323 -0.263378 16.351323 1.097413 L 16.351323 9.739262 C 16.351323 11.100053 15.256261 12.199472 13.906124 12.199472 L 6.341841 12.199472 C 4.991705 12.199472 3.892245 11.100053 3.892245 9.739262 L 3.892245 1.097413 C 3.892245 -0.263378 4.991705 -1.366946 6.341841 -1.366946 Z M 6.341841 -1.366946 " transform="matrix(0.88822,0,0,0.941548,1.191266,7.701108)"/>
<path style="fill-rule:evenodd;fill:rgb(95.294118%,71.764708%,85.09804%);fill-opacity:1;stroke-width:1.640248;stroke-linecap:round;stroke-linejoin:round;stroke:rgb(90.196079%,0.784314%,70.588237%);stroke-opacity:1;stroke-miterlimit:4;" d="M 6.931152 -5.038591 L 12.314107 -5.038591 C 12.780278 -5.038591 13.158492 -4.860195 13.158492 -4.640311 C 13.158492 -4.416279 12.780278 -4.237882 12.314107 -4.237882 L 6.931152 -4.237882 C 6.464981 -4.237882 6.086767 -4.416279 6.086767 -4.640311 C 6.086767 -4.860195 6.464981 -5.038591 6.931152 -5.038591 Z M 6.931152 -5.038591 " transform="matrix(0.88822,0,0,0.941548,1.191266,7.701108)"/>
<path style="fill-rule:evenodd;fill:rgb(94.117647%,89.019608%,92.54902%);fill-opacity:1;stroke-width:0.820124;stroke-linecap:round;stroke-linejoin:round;stroke:rgb(90.196079%,0.784314%,70.588237%);stroke-opacity:1;stroke-miterlimit:4;" d="M 11.100303 -5.092525 C 11.100303 -4.461915 10.572563 -3.94747 9.921682 -3.94747 C 9.2752 -3.94747 8.747459 -4.461915 8.747459 -5.092525 C 8.747459 -5.727284 9.2752 -6.237581 9.921682 -6.237581 C 10.572563 -6.237581 11.100303 -5.727284 11.100303 -5.092525 Z M 11.100303 -5.092525 " transform="matrix(0.88822,0,0,0.941548,1.191266,7.701108)"/>
<path style="fill-rule:nonzero;fill:rgb(94.117647%,89.019608%,92.54902%);fill-opacity:1;stroke-width:4.851364;stroke-linecap:butt;stroke-linejoin:miter;stroke:rgb(61.56863%,22.745098%,60.784316%);stroke-opacity:1;stroke-miterlimit:4;" d="M 96.430182 42.898926 C 96.430182 42.004956 96.687283 41.110985 97.252906 40.217014 C 97.792819 39.273379 98.075631 38.727063 98.075631 38.578068 C 98.075631 37.684098 97.484298 37.261945 96.327341 37.261945 C 92.702213 37.261945 89.565576 42.352611 86.968853 52.558775 L 85.117723 59.834703 L 94.579052 59.834703 L 93.653488 64.155561 L 84.397839 64.155561 C 80.155667 83.798082 77.224712 96.363336 75.579263 101.851322 C 71.954135 113.96959 67.429151 121.618006 62.030023 124.846233 C 59.56185 126.286519 56.785156 127.006662 53.699939 127.006662 C 50.614723 127.006662 48.146551 126.261686 46.295421 124.746903 C 44.470001 123.306617 43.544437 121.344848 43.544437 118.886429 C 43.544437 117.371645 44.084349 116.080354 45.189885 114.987723 C 46.19258 113.895093 47.426667 113.348777 48.866434 113.348777 C 50.177651 113.348777 51.334607 113.87026 52.363013 114.888393 C 53.391418 115.906527 53.905621 117.048822 53.905621 118.265616 C 53.905621 119.234084 53.622809 120.152887 53.082896 121.046858 C 52.542983 121.940828 52.260172 122.487144 52.260172 122.685804 C 52.260172 123.430779 52.877215 123.8281 54.111302 123.8281 C 56.579474 123.8281 58.430604 121.965661 59.664691 118.265616 C 60.950197 114.640068 63.289819 105.203712 66.632137 89.931714 C 68.894629 79.601387 70.822889 71.009336 72.391207 64.155561 L 64.883848 64.155561 L 65.809413 59.834703 L 73.316772 59.834703 C 74.345177 56.134658 75.425003 52.956096 76.607669 50.299016 C 77.764625 47.617105 79.230102 44.984858 81.029812 42.377443 C 82.803811 39.720364 84.989172 37.684098 87.585896 36.318309 C 90.182619 34.952521 93.164995 34.282043 96.533023 34.282043 C 99.592528 34.282043 102.060701 35.027018 103.911831 36.541802 C 105.762961 37.982088 106.688525 39.943857 106.688525 42.476773 C 106.688525 44.066055 106.174323 45.357345 105.145917 46.400311 C 104.194642 47.418444 102.960556 47.939927 101.443658 47.939927 C 100.081021 47.939927 98.872645 47.443277 97.86995 46.499641 C 96.892964 45.456676 96.430182 44.264715 96.430182 42.898926 Z M 96.430182 42.898926 " transform="matrix(0.151934,0,0,0.157304,1.856765,2.119022)"/>
<path style="fill-rule:nonzero;fill:rgb(94.117647%,89.019608%,92.54902%);fill-opacity:1;stroke-width:4.650341;stroke-linecap:butt;stroke-linejoin:miter;stroke:rgb(61.56863%,22.745098%,60.784316%);stroke-opacity:1;stroke-miterlimit:4;" d="M 120.130112 80.509854 C 119.583627 80.509854 118.80944 80.277985 117.80755 79.76272 C 116.805661 79.273219 116.168095 79.015587 115.849312 79.015587 C 115.166205 79.015587 114.437558 79.350509 113.686141 79.994589 C 112.934724 80.587143 112.319928 81.20546 111.818984 81.875304 C 111.318039 82.519384 110.748784 83.343807 110.111218 84.322809 C 109.496422 85.327574 109.132098 85.920128 108.972707 86.126234 L 111.363579 97.796969 C 111.910065 100.450579 112.843643 101.764503 114.141546 101.764503 C 114.779112 101.764503 115.416678 101.506871 116.008703 101.01737 C 116.646269 100.450579 117.693699 99.239708 119.150993 97.358994 L 120.722138 98.389522 C 118.422346 101.687214 116.418567 104.031666 114.665261 105.422879 C 112.957494 106.814093 111.226958 107.509699 109.428111 107.509699 C 107.424332 107.509699 105.921498 106.607987 104.874068 104.753036 C 103.872179 102.846558 102.96137 99.909552 102.164413 95.916254 L 100.388336 98.85326 C 98.225165 102.434347 96.54017 104.778799 95.287808 105.860854 C 94.035446 106.968672 92.487071 107.509699 90.574373 107.509699 C 89.18539 107.509699 88.046879 107.123251 87.136071 106.324592 C 86.248033 105.474406 85.792628 104.392351 85.792628 103.10419 C 85.792628 101.970609 86.202492 100.991607 86.99945 100.192947 C 87.796407 99.342761 88.752756 98.904787 89.914037 98.904787 C 90.665454 98.904787 91.530722 99.188182 92.532612 99.729209 C 93.534501 100.244474 94.172067 100.476343 94.46808 100.476343 C 95.128416 100.476343 95.697672 100.296 96.198616 99.883789 C 96.699561 99.445814 97.314357 98.621391 98.065774 97.41052 L 101.344685 92.180588 L 99.113204 80.664433 C 98.70334 78.835245 98.202395 77.521321 97.61037 76.774188 C 97.018344 76.027055 96.107536 75.66637 94.923484 75.66637 C 94.217608 75.66637 93.35234 75.717896 92.30491 75.820949 L 92.30491 73.785655 L 104.782987 71.982231 C 105.944268 73.682603 107.060009 77.134873 108.152979 82.313278 C 111.158648 78.165401 113.412899 75.434501 114.961273 74.094814 C 116.555188 72.7036 118.217414 71.982231 119.970721 71.982231 C 121.109231 71.982231 122.111121 72.471732 122.953619 73.42497 C 123.864427 74.30092 124.319832 75.382974 124.319832 76.619609 C 124.319832 77.6759 123.887198 78.603376 123.0447 79.402035 C 122.247742 80.149169 121.268623 80.509854 120.130112 80.509854 Z M 120.130112 80.509854 " transform="matrix(0.171551,0,0,0.151621,0.782201,2.023465)"/>
</g>
</svg>
